X:44
T:Over the water to Charlie
R:Jig
M:6/8
L:1/8
K:D
A2A A>BG | F>GE DFG | A>BA AFA | B3 d3 |
D2D D>EF | G>AF E2D | d>cB AFA | B3 d3 :|
|:d2e f>gf | e>fd ecA | d2e f>ge | e3 A3 |
d2e f>gf | efd ecA | B/2c/2dB AFA | B3 d3 :|
|:AFD AFD | BGE BGE | AFD DFA | B3 d3 |
AFD dAF | GAF E2D | dcB AFA | B3 d3 :|
|:dfd Afd | ecA acA | dfd Afd | e3 A3 |
dfd afd | c/2d/2eA ecA | B/2c/2dB AFA | B3 d3:|
%%newpage
%%vskip 1.5cm
%%textfont Timesbold 25
%%centre  9/8 SLIP JIGS
%%vskip 1.5cm
